/*
Load all sound files contained in the sounds directory of the SuperCollider application.
*/
(Platform.resourceDir +/+ "sounds/").allwaysLoadBuffers;
//:
/*
Buffer.allNames;
Buffer.all;
\columbia.buf.play;
*/
