// 28 Nov 2020 13:40
//:Keep this in a separate window for accessing
//:Start recording
SenseServer.record;
//:Stop recording
SenseServer.stopRecording;
//:post - stop posting
SenseServer.postInput;
SenseServer.mute;
