// 29 Sep 2017 11:10
// Testing MIDI input
//: Trying with LIVID instruments CODE 2, and U-Control UC-33.
/* 
	IMPORTANT: To test input Run all 3 in the order listed below
	MIDIClient.init, MIDIIn.connectAll, MIDIFunc.trace(true);
*/
MIDIClient.init;
//:
MIDIIn.connectAll;
//:
MIDIFunc.trace(true);
//:

