/* Edit code in this text view, then press the "RUN" button to play it in player.
Use an event (Example 1), a UGen function (Example 2), 
or a symbol naming an existing SynthDef (Example 3).

NOTE: Press "RUN" without editing to run Example 1 (Event)

*/
// Example 1: Event
(dur: 0.1, degree: [-5, 5, 32].pwhite)
// Example 2, UGen Function:
//{ WhiteNoise.ar(0.1) }
// Example 3: name of SynthDef
//\default
